src/img/mm-create.svg

<?xml version="1.0" encoding="UTF-8"?>
<svg width="24px" height="24px" viewBox="0 0 24 24" version="1.1" xmlns="http://www.w3.org/2000/svg" xmlns:xlink="http://www.w3.org/1999/xlink">
    <!-- Generator: Sketch 52.5 (67469) - http://www.bohemiancoding.com/sketch -->
    <title>mm-create</title>
    <desc>Created with Sketch.</desc>
    <g id="Page-1" stroke="none" stroke-width="1" fill="none" fill-rule="evenodd">
        <g id="mm-create" fill="#FFFFFF" fill-rule="nonzero">
            <path d="M23.88,11.16 C23.8564309,10.9629304 23.6960148,10.8104932 23.498,10.797 L13.562,10.158 L16.036,0.516 C16.0835912,0.323977948 15.9886775,0.125117721 15.8094555,0.0413509317 C15.6302336,-0.0424158573 15.4167907,0.0123212213 15.3,0.172 L12.548,4.032 C11.3434526,5.72090591 10.5953134,7.69217685 10.376,9.755 L10.356,9.951 L7.308,9.755 C6.97489539,8.12231366 5.59073536,6.914245 3.928,6.805 C1.89577671,6.68165924 0.144974999,8.22165013 0.008,10.253 C-0.0554103167,11.2710781 0.304294728,12.2701708 1.00211323,13.0141823 C1.69993174,13.7581939 2.67395081,14.1811132 3.694,14.183 C5.162,14.183 6.444,13.314 7.035,12.052 L10.067,12.698 L9.74,15.778 C8.23094247,15.9612602 6.98916643,17.0521328 6.613,18.525 C6.36684947,19.4731898 6.51053931,20.4804591 7.012,21.322 C7.50833318,22.1660889 8.32180351,22.7764617 9.271,23.017 C10.2196912,23.2607236 11.2263505,23.1174702 12.0693909,22.6187729 C12.9124313,22.1200756 13.5227489,21.3068124 13.766,20.358 C14.1770325,18.7425745 13.4561936,17.0518795 12.006,16.23 L12.766,13.273 L12.96,13.313 C14.99,13.745 17.094,13.645 19.074,13.024 L23.595,11.604 C23.7841037,11.5432539 23.903886,11.3572981 23.881,11.16 L23.88,11.16 Z M5.722,10.62 C5.6909937,11.1600601 5.44477483,11.6651478 5.03843825,12.0222429 C4.63210166,12.3793379 4.09956837,12.55863 3.56,12.52 C2.43987212,12.4461493 1.59036877,11.4803981 1.66,10.36 C1.73596814,9.24050479 2.7009904,8.39203542 3.821,8.46 C4.9419163,8.53224826 5.79232118,9.49902433 5.721,10.62 L5.722,10.62 Z M12.16,19.947 C11.8729889,21.0293043 10.7706503,21.681091 9.684,21.411 C9.16038581,21.2790091 8.71156247,20.9425717 8.438,20.477 C7.96943222,19.6846484 8.09142672,18.6763716 8.7354451,18.0186353 C9.37946348,17.3608989 10.3849454,17.2176833 11.1869956,17.6694491 C11.9890457,18.121215 12.3877048,19.0553325 12.159,19.947 L12.16,19.947 Z M11.932,12.264 C11.4426459,12.2628954 11.0466343,11.8656901 11.0470025,11.3763348 C11.0473707,10.8869796 11.4439796,10.4903707 11.9333348,10.4900025 C12.4226901,10.4896343 12.8198954,10.8856459 12.821,11.375 C12.8215326,11.6112055 12.727936,11.8378901 12.5609131,12.0049131 C12.3938901,12.171936 12.1672055,12.2655326 11.931,12.265 L11.932,12.264 Z" id="Shape"></path>
        </g>
    </g>
</svg>

<svg xmlns="http://www.w3.org/2000/svg" width="24" height="24" viewBox="0 0 24 24">
    <path fill="#8777B3" fill-rule="nonzero" d="M23.88 11.16a.413.413 0 0 0-.382-.363l-9.936-.639L16.036.516A.414.414 0 0 0 15.3.172l-2.752 3.86a12.05 12.05 0 0 0-2.172 5.723l-.02.196-3.048-.196a3.697 3.697 0 0 0-3.38-2.95 3.704 3.704 0 0 0-3.92 3.448 3.7 3.7 0 0 0 3.686 3.93c1.468 0 2.75-.869 3.341-2.131l3.032.646-.327 3.08a3.686 3.686 0 0 0-3.127 2.747 3.665 3.665 0 0 0 .399 2.797 3.665 3.665 0 0 0 2.259 1.695 3.692 3.692 0 0 0 4.495-2.659 3.697 3.697 0 0 0-1.76-4.128l.76-2.957.194.04c2.03.432 4.134.332 6.114-.289l4.521-1.42a.416.416 0 0 0 .286-.444zm-18.158-.54a2.021 2.021 0 0 1-2.162 1.9 2.038 2.038 0 0 1-1.9-2.16 2.042 2.042 0 0 1 2.161-1.9 2.035 2.035 0 0 1 1.9 2.16zm6.438 9.327a2.05 2.05 0 0 1-2.476 1.464 2.017 2.017 0 0 1-1.246-.934 2.034 2.034 0 1 1 3.721-.53zm-.228-7.683a.887.887 0 1 1 .889-.889.888.888 0 0 1-.89.89z"/>
</svg>
